src/rounded/icons/fi-rr-time-forward.svg

<svg id="Layer_1" height="512" viewBox="0 0 24 24" width="512" xmlns="http://www.w3.org/2000/svg" data-name="Layer 1"><path d="m23 11a1 1 0 0 0 -1 1 10.034 10.034 0 1 1 -2.9-7.021.862.862 0 0 1 -.1.021h-3a1 1 0 0 0 0 2h3a3 3 0 0 0 3-3v-3a1 1 0 0 0 -2 0v2.065a11.994 11.994 0 1 0 4 8.935 1 1 0 0 0 -1-1z"/><path d="m12 6a1 1 0 0 0 -1 1v5a1 1 0 0 0 .293.707l3 3a1 1 0 0 0 1.414-1.414l-2.707-2.707v-4.586a1 1 0 0 0 -1-1z"/></svg>

<svg id="Layer_1" data-name="Layer 1" xmlns="http://www.w3.org/2000/svg" viewBox="0 0 24 24"><path d="M23,11a1,1,0,0,0-1,1,10.034,10.034,0,1,1-2.9-7.021A.862.862,0,0,1,19,5H16a1,1,0,0,0,0,2h3a3,3,0,0,0,3-3V1a1,1,0,0,0-2,0V3.065A11.994,11.994,0,1,0,24,12,1,1,0,0,0,23,11Z"/><path d="M12,6a1,1,0,0,0-1,1v5a1,1,0,0,0,.293.707l3,3a1,1,0,0,0,1.414-1.414L13,11.586V7A1,1,0,0,0,12,6Z"/></svg>
